app/static/img/venture_default_logo.svg

<svg id="Layer_1" xmlns="http://www.w3.org/2000/svg" viewBox="0 0 160 160"><style></style><path fill="#e6e7e8" d="M0 0h160v160H0z"/><path d="M31.1 21.6V152h32.6v-19.6h32.6V152h32.6V21.6H31.1zm26.1 84.8h-13v-13h13v13zm0-19.6h-13v-13h13v13zm0-19.6h-13v-13h13v13zm0-19.5h-13v-13h13v13zm19.5 58.7h-13v-13h13v13zm0-19.6h-13v-13h13v13zm0-19.6h-13v-13h13v13zm0-19.5h-13v-13h13v13zm19.6 58.7h-13v-13h13v13zm0-19.6h-13v-13h13v13zm0-19.6h-13v-13h13v13zm0-19.5h-13v-13h13v13zm19.6 58.7h-13v-13h13v13zm0-19.6h-13v-13h13v13zm0-19.6h-13v-13h13v13zm0-19.5h-13v-13h13v13z" fill="#929497"/></svg>

<?xml version="1.0" encoding="utf-8"?>
<!-- Generator: Adobe Illustrator 22.0.0, SVG Export Plug-In . SVG Version: 6.00 Build 0)  -->
<svg version="1.1" id="Layer_1" xmlns="http://www.w3.org/2000/svg" xmlns:xlink="http://www.w3.org/1999/xlink" x="0px" y="0px"
	 viewBox="0 0 160 160" style="enable-background:new 0 0 160 160;" xml:space="preserve">
<style type="text/css">
	.st0{fill:#E6E7E8;}
	.st1{clip-path:url(#SVGID_2_);}
	.st2{fill:#929497;}
</style>
<g>
	<rect class="st0" width="160" height="160"/>
	<path class="st2" d="M31.1,21.6V152h32.6v-19.6h32.6V152h32.6V21.6H31.1z M57.2,106.4h-13v-13h13V106.4z M57.2,86.8h-13v-13h13
		V86.8z M57.2,67.2h-13v-13h13V67.2z M57.2,47.7h-13v-13h13V47.7z M76.7,106.4h-13v-13h13V106.4z M76.7,86.8h-13v-13h13V86.8z
		 M76.7,67.2h-13v-13h13V67.2z M76.7,47.7h-13v-13h13V47.7z M96.3,106.4h-13v-13h13V106.4z M96.3,86.8h-13v-13h13V86.8z M96.3,67.2
		h-13v-13h13V67.2z M96.3,47.7h-13v-13h13V47.7z M115.9,106.4h-13v-13h13V106.4z M115.9,86.8h-13v-13h13V86.8z M115.9,67.2h-13v-13
		h13V67.2z M115.9,47.7h-13v-13h13V47.7z"/>
</g>
</svg>
